NotoEmoji/emoji_u1f51a.svg

<svg enable-background="new 0 0 128 128" viewBox="0 0 128 128" xmlns="http://www.w3.org/2000/svg"><path d="m116 4h-104c-4.42 0-8 3.58-8 8v104c0 4.42 3.58 8 8 8h104c4.42 0 8-3.58 8-8v-104c0-4.42-3.58-8-8-8z" fill="#427687"/><path d="m109.7 4h-98.2c-4.13.03-7.47 3.37-7.5 7.5v97.9c-.01 4.14 3.34 7.49 7.48 7.5h.02 98.1c4.14.01 7.49-3.34 7.5-7.48 0-.01 0-.01 0-.02v-97.9c.09-4.05-3.13-7.41-7.18-7.5-.07 0-.15 0-.22 0z" fill="#8cafbf"/><path d="m47.4 71-24-24c-1.66-1.46-1.82-3.99-.35-5.65.11-.13.23-.24.35-.35l24-24c1.68-1.44 4.2-1.24 5.64.44.61.71.95 1.62.96 2.56v14c0 1.1.9 2 2 2h46c2.21 0 4 1.79 4 4v8c0 2.21-1.79 4-4 4h-46c-1.1 0-2 .9-2 2v14c-.02 2.21-1.83 3.98-4.04 3.96-.94-.01-1.85-.35-2.56-.96z" fill="#fafafa"/><path d="m39.7 12.9c0-2.3-1.6-3-10.8-2.7-7.7.3-11.5 1.2-13.8 4s-2.9 8.5-3 15.3c0 4.8 0 9.3 2.5 9.3 3.4 0 3.4-7.9 6.2-12.3 5.4-8.7 18.9-10.6 18.9-13.6z" fill="#b4e1ed" opacity=".5"/><g fill="#fafafa"><path d="m41.28 111.67h-16.03v-27.84h16.03v4.84h-10.13v6.11h9.43v4.84h-9.43v7.18h10.13z"/><path d="m73.93 111.67h-7.5l-12.11-21.06h-.17c.24 3.72.36 6.37.36 7.96v13.1h-5.27v-27.84h7.45l12.09 20.85h.13c-.19-3.62-.29-6.18-.29-7.67v-13.18h5.31z"/><path d="m104.04 97.48c0 4.58-1.3 8.09-3.91 10.53s-6.38 3.66-11.3 3.66h-7.88v-27.84h8.74c4.54 0 8.07 1.2 10.59 3.6s3.76 5.75 3.76 10.05zm-6.13.16c0-5.98-2.64-8.97-7.92-8.97h-3.14v18.13h2.53c5.68 0 8.53-3.06 8.53-9.16z"/></g></svg>

<?xml version="1.0" encoding="utf-8"?>
<!-- Generator: Adobe Illustrator 25.2.3, SVG Export Plug-In . SVG Version: 6.00 Build 0)  -->
<svg version="1.1" id="Layer_2" xmlns="http://www.w3.org/2000/svg" xmlns:xlink="http://www.w3.org/1999/xlink" x="0px" y="0px"
	 viewBox="0 0 128 128" style="enable-background:new 0 0 128 128;" xml:space="preserve">
<g>
	<path style="fill:#427687;" d="M116,4H12c-4.42,0-8,3.58-8,8v104c0,4.42,3.58,8,8,8h104c4.42,0,8-3.58,8-8V12
		C124,7.58,120.42,4,116,4z"/>
	<path style="fill:#8CAFBF;" d="M109.7,4H11.5C7.37,4.03,4.03,7.37,4,11.5v97.9c-0.01,4.14,3.34,7.49,7.48,7.5c0.01,0,0.01,0,0.02,0
		h98.1c4.14,0.01,7.49-3.34,7.5-7.48c0-0.01,0-0.01,0-0.02V11.5c0.09-4.05-3.13-7.41-7.18-7.5C109.85,4,109.77,4,109.7,4z"/>
	<path style="fill:#FAFAFA;" d="M47.4,71l-24-24c-1.66-1.46-1.82-3.99-0.35-5.65c0.11-0.13,0.23-0.24,0.35-0.35l24-24
		c1.68-1.44,4.2-1.24,5.64,0.44c0.61,0.71,0.95,1.62,0.96,2.56v14c0,1.1,0.9,2,2,2h46c2.21,0,4,1.79,4,4v8c0,2.21-1.79,4-4,4H56
		c-1.1,0-2,0.9-2,2v14c-0.02,2.21-1.83,3.98-4.04,3.96C49.02,71.95,48.11,71.61,47.4,71z"/>
	<path style="opacity:0.5;fill:#B4E1ED;enable-background:new    ;" d="M39.7,12.9c0-2.3-1.6-3-10.8-2.7c-7.7,0.3-11.5,1.2-13.8,4
		s-2.9,8.5-3,15.3c0,4.8,0,9.3,2.5,9.3c3.4,0,3.4-7.9,6.2-12.3C26.2,17.8,39.7,15.9,39.7,12.9z"/>
</g>
<g>
	<path style="fill:#FAFAFA;" d="M41.28,111.67H25.25V83.83h16.03v4.84H31.15v6.11h9.43v4.84h-9.43v7.18h10.13V111.67z"/>
	<path style="fill:#FAFAFA;" d="M73.93,111.67h-7.5L54.32,90.61h-0.17c0.24,3.72,0.36,6.37,0.36,7.96v13.1h-5.27V83.83h7.45
		l12.09,20.85h0.13c-0.19-3.62-0.29-6.18-0.29-7.67V83.83h5.31V111.67z"/>
	<path style="fill:#FAFAFA;" d="M104.04,97.48c0,4.58-1.3,8.09-3.91,10.53c-2.61,2.44-6.38,3.66-11.3,3.66h-7.88V83.83h8.74
		c4.54,0,8.07,1.2,10.59,3.6S104.04,93.18,104.04,97.48z M97.91,97.64c0-5.98-2.64-8.97-7.92-8.97h-3.14v18.13h2.53
		C95.06,106.8,97.91,103.74,97.91,97.64z"/>
</g>
</svg>
